src/main/resources/icons/AllIcons/ide/readonly_dark.svg

<!-- Copyright 2000-2021 JetBrains s.r.o. Use of this source code is governed by the Apache 2.0 license that can be found in the LICENSE file. -->
<svg xmlns="http://www.w3.org/2000/svg" width="16" height="16" viewBox="0 0 16 16">
  <path fill="#AFB1B3" d="M4,7 L12,7 L12,13 L4,13 L4,7 Z M8,3.5 C7.17157288,3.5 6.5,4.12360338 6.5,4.89285714 L6.5,8.10714286 C6.5,8.87639662 7.17157288,9.5 8,9.5 C8.82842712,9.5 9.5,8.87639662 9.5,8.10714286 L9.5,4.89285714 C9.5,4.12360338 8.82842712,3.5 8,3.5 Z M8,2 C9.65685425,2 11,3.34314575 11,5 L11,8 C11,9.65685425 9.65685425,11 8,11 C6.34314575,11 5,9.65685425 5,8 L5,5 C5,3.34314575 6.34314575,2 8,2 Z"/>
</svg>

<svg xmlns="http://www.w3.org/2000/svg" width="16" height="16" viewBox="0 0 16 16"><rect id="frame" width="16" height="16" fill="none"/><path fill="#AFB1B3" d="M4 7h8v6H4V7zm4-3.5c-.828 0-1.5.624-1.5 1.393v3.214c0 .77.672 1.393 1.5 1.393s1.5-.624 1.5-1.393V4.893C9.5 4.123 8.828 3.5 8 3.5zM8 2a3 3 0 0 1 3 3v3a3 3 0 1 1-6 0V5a3 3 0 0 1 3-3z"/></svg>
